src/assets/icons/letters,fancy,serif-z.svg

<svg width="48" height="48" viewBox="0 0 48 48" fill="none" xmlns="http://www.w3.org/2000/svg">
<path d="M37.2454 37H9.42938V36.126L28.5434 9.716H18.9294C17.0547 9.716 15.636 10.1847 14.6734 11.122C13.736 12.0593 13.09 13.516 12.7354 15.492H11.2534L11.8614 7.74H36.4854V8.614L17.5614 34.872H28.4294C29.7974 34.872 30.912 34.758 31.7734 34.53C32.66 34.302 33.3694 33.8967 33.9014 33.314C34.4587 32.7313 34.8894 31.9587 35.1934 30.996C35.4974 30.0333 35.7634 28.8047 35.9914 27.31H37.7394L37.2454 37Z" fill="black"/>
</svg>

<svg xmlns="http://www.w3.org/2000/svg" width="48" height="48" fill="none" viewBox="0 0 48 48">
  <path fill="#000" d="M37.245 37H9.43v-.874l19.114-26.41H18.93c-1.874 0-3.293.469-4.256 1.406-.937.937-1.583 2.394-1.938 4.37h-1.482l.608-7.752h24.624v.874L17.561 34.872H28.43c1.368 0 2.483-.114 3.344-.342.887-.228 1.596-.633 2.128-1.216.558-.583.988-1.355 1.292-2.318.304-.963.57-2.191.798-3.686h1.748L37.245 37z"/>
</svg>
